src/assets/images/icons/star-half-line.svg

<svg xmlns="http://www.w3.org/2000/svg" width="24" height="24" fill="none" viewBox="0 0 24 24"><g clip-path="url(#a)"><path fill="#181d27" d="m12 15.968 4.247 2.377-.949-4.773 3.573-3.305-4.833-.573L12 5.275zm0 2.292-7.053 3.948 1.575-7.928L.587 8.792l8.027-.952L12 .5l3.386 7.34 8.027.952-5.935 5.488 1.575 7.928z"/></g><defs><clipPath id="a"><path fill="#fff" d="M0 0h24v24H0z"/></clipPath></defs></svg>

<svg width="24" height="24" viewBox="0 0 24 24" fill="none" xmlns="http://www.w3.org/2000/svg">
<g clip-path="url(#clip0_58_16624)">
<path d="M12 15.968L16.247 18.345L15.298 13.572L18.871 10.267L14.038 9.694L12 5.275V15.968ZM12 18.26L4.94704 22.208L6.52204 14.28L0.587036 8.792L8.61404 7.84L12 0.5L15.386 7.84L23.413 8.792L17.478 14.28L19.053 22.208L12 18.26Z" fill="#181D27"/>
</g>
<defs>
<clipPath id="clip0_58_16624">
<rect width="24" height="24" fill="white"/>
</clipPath>
</defs>
</svg>
